X:302
T:New Hornpipe. JaW.302, A
M:C
L:1/8
Q:1/2=90
B:James Winder Ms, Lancashire, 1835-41
R:.Hornpipe
O:
A:England, Wyresdale Lancashire
Z:vmp.Chris Partington, Aug 2004
K:D
d2d2 fedc|d2ef d2A2|BdcB AGFE|D2DE D4|
d2d2fedc|d2(fg) a2gf|e2dc edcB|A2AB A4||
Acec Acec|Bdfd Bdfd|Bagf edcB|((3cde) A2 A2GF|
G2b2 F2a2|E2g2D2f2|gbag fedc|d2de d4|]

